X: 35526
T: Ruins Of Killmallock, The
R: jig
M: 6/8
K: Gmajor
A|BAB cBc|dBG GFD|BAc BAG|FDE FGA|
BAB cBc|dBG ABc|BAG AFD|DGG G2:|
|:d|gfg dBd|gfe dcB|cBc AFA|GBc def|
gfg dBd|gfe dcB|ABc def|gGG G2:|

